svg/emoji_u1f49f.svg

<svg viewBox="0 0 128 128" xmlns="http://www.w3.org/2000/svg">
  <linearGradient id="b" gradientUnits="userSpaceOnUse" x1="64" x2="64" y1="4" y2="124">
    <stop offset=".4748" stop-color="#E53935"/>
    <stop offset=".913" stop-color="#C62828"/>
  </linearGradient>
  <path d="m110 124h-92c-7.73 0-14-6.27-14-14v-92c0-7.73 6.27-14 14-14h92c7.73 0 14 6.27 14 14v92c0 7.73-6.27 14-14 14z" fill="url(#b)"/>
  <g opacity=".2">
    <path d="m110 7c6.07 0 11 4.93 11 11v92c0 6.07-4.93 11-11 11h-92c-6.07 0-11-4.93-11-11v-92c0-6.07 4.93-11 11-11h92m0-3h-92c-7.73 0-14 6.27-14 14v92c0 7.73 6.27 14 14 14h92c7.73 0 14-6.27 14-14v-92c0-7.73-6.27-14-14-14z" fill="#424242"/>
  </g>
  <radialGradient id="a" cx="64" cy="41.505" fx="90.479" fy="77.228" gradientTransform="matrix(-2.9085e-12 -.9337 1.0677 -2.9085e-12 19.684 102.76)" gradientUnits="userSpaceOnUse" r="44.467">
    <stop offset=".5716" stop-color="#FAFAFA"/>
    <stop offset="1" stop-color="#eee"/>
  </radialGradient>
  <path d="m86.43 22.9c-16.38 0-22.4 19.59-22.4 19.59s-5.94-19.59-22.44-19.59c-12.4 0-26.54 9.83-21.31 32.16 5.22 22.33 43.59 50.04 43.59 50.04s0.2-0.08 0.2-0.2c0 0.12 0.13 0.18 0.13 0.18s38.3-27.69 43.53-50.03c5.22-22.32-8.9-32.15-21.3-32.15z" fill="url(#a)"/>
  <g opacity=".2">
    <path d="m86.43 25.9c6.08 0 11.79 2.63 15.29 7.04 4.09 5.16 5.16 12.57 3.08 21.44-4.32 18.48-33.6 41.65-40.78 47.1-7.22-5.48-36.5-28.63-40.82-47.11-2.07-8.86-1.01-16.27 3.08-21.43 3.5-4.42 9.22-7.05 15.31-7.05 5.78 0 10.79 2.83 14.88 8.42 3.25 4.44 4.67 8.99 4.69 9.03l2.84 9.34 2.9-9.32c0.01-0.05 1.46-4.61 4.71-9.05 4.1-5.58 9.09-8.41 14.82-8.41m0-3c-16.38 0-22.4 19.59-22.4 19.59s-5.94-19.59-22.44-19.59c-12.4 0-26.54 9.83-21.31 32.16 5.22 22.33 43.59 50.04 43.59 50.04s0.2-0.08 0.2-0.2c0 0.12 0.13 0.18 0.13 0.18s38.3-27.69 43.53-50.03c5.22-22.32-8.9-32.15-21.3-32.15z" fill="#424242"/>
  </g>
</svg>

<svg viewBox="0 0 128 128" xmlns="http://www.w3.org/2000/svg" xmlns:xlink="http://www.w3.org/1999/xlink">
  <g id="图层_3_copy">
    <g>
      <linearGradient id="SVGID_1_" gradientUnits="userSpaceOnUse" x1="64" x2="64" y1="4" y2="124">
        <stop offset="0.4748" style="stop-color:#B388FF"/>
        <stop offset="0.913" style="stop-color:#7C4DFF"/>
      </linearGradient>
      <path d="M110,124H18c-7.73,0-14-6.27-14-14V18c0-7.73,6.27-14,14-14h92c7.73,0,14,6.27,14,14v92 C124,117.73,117.73,124,110,124z" fill="url(#SVGID_1_)"/>
      <g opacity="0.2">
        <path d="M110,7c6.07,0,11,4.93,11,11v92c0,6.07-4.93,11-11,11H18c-6.07,0-11-4.93-11-11V18c0-6.07,4.93-11,11-11 H110 M110,4H18C10.27,4,4,10.27,4,18v92c0,7.73,6.27,14,14,14h92c7.73,0,14-6.27,14-14V18C124,10.27,117.73,4,110,4L110,4z" fill="#424242"/>
      </g>
      <g>
        <radialGradient id="SVGID_3_" cx="64.0001" cy="41.5052" fx="90.4792" fy="77.2284" gradientTransform="matrix(-2.908451e-12 -0.9337 1.0677 -2.908451e-12 19.6843 102.7566)" gradientUnits="userSpaceOnUse" r="44.4667">
          <stop offset="0.5716" style="stop-color:#FAFAFA"/>
          <stop offset="1" style="stop-color:#EEEEEE"/>
        </radialGradient>
        <path d="M86.43,22.9c-16.38,0-22.4,19.59-22.4,19.59S58.09,22.9,41.59,22.9 c-12.4,0-26.54,9.83-21.31,32.16c5.22,22.33,43.59,50.04,43.59,50.04s0.2-0.08,0.2-0.2c0,0.12,0.13,0.18,0.13,0.18 s38.3-27.69,43.53-50.03C112.95,32.73,98.83,22.9,86.43,22.9z" fill="url(#SVGID_3_)"/>
        <g opacity="0.2">
          <path d="M86.43,25.9c6.08,0,11.79,2.63,15.29,7.04c4.09,5.16,5.16,12.57,3.08,21.44 c-4.32,18.48-33.6,41.65-40.78,47.1C56.8,96,27.52,72.85,23.2,54.37c-2.07-8.86-1.01-16.27,3.08-21.43 c3.5-4.42,9.22-7.05,15.31-7.05c5.78,0,10.79,2.83,14.88,8.42c3.25,4.44,4.67,8.99,4.69,9.03l2.84,9.34l2.9-9.32 c0.01-0.05,1.46-4.61,4.71-9.05C75.71,28.73,80.7,25.9,86.43,25.9 M86.43,22.9c-16.38,0-22.4,19.59-22.4,19.59 S58.09,22.9,41.59,22.9c-12.4,0-26.54,9.83-21.31,32.16c5.22,22.33,43.59,50.04,43.59,50.04s0.2-0.08,0.2-0.2 c0,0.12,0.13,0.18,0.13,0.18s38.3-27.69,43.53-50.03C112.95,32.73,98.83,22.9,86.43,22.9L86.43,22.9z" fill="#424242"/>
        </g>
      </g>
    </g>
  </g>
</svg>
